!!!SOCIAL_FUNCTION:	isleta
!!!PDT:	1957
!!!OTL: No_52_Second_Song_of_Hunci_Dance.krn
!!!LING_GROUP: Keresan
!!!LANG: Tone
!!!REG: Southwest
**kern
*staff1
=1-
*clefF4
*k[f#]
*M3/4
2r
4E\
=2!|:
4B\
12B\L
12A\
12A\J
12G\L
12G\
12G\J
=3
8.G\L
16G\Jk
4G\
4G\
=4
4A\
12A\L
12G\
12G\J
12G\L
12E\
12E\J
=5
*M2/4
8.E\L
16E\Jk
8E\
8r
=6
16E\LK
8.D\J
8.G\L
16E\Jk
=7
8.E\L
16E\Jk
4E\
=8
16E\LK
8.D\J
16G\LK
8.E\J
=9
*M3/8
16E\
16r
8G\L
16E\L
16E\JJ
=10
*M2/4
8.E\L
16E\Jk
8.E\L
16E\Jk
=11
8.E\L
16E\Jk
4E\
=12
*M3/4
2r
4E\
==:|!
*-
